X:1
T:Title
%%score [ ( 1 2 ) ( 3 4 ) ] { ( 5 6 ) | 7 }
L:1/8
Q:1/4=120
M:4/4
K:F
V:1 treble nm="Midi_74"
V:2 treble 
V:3 bass nm="Midi_74"
V:4 bass 
V:5 treble nm="Org."
V:6 treble 
V:7 bass 
V:1
 c8 | B4 G4 | E8 || F8 | A4 f4 | d4 =B4 | c8 || A8 | F4 D4 | ^C8 || D8 | %11
 F4"^William Henry Havergal\n(1793-1870)" d4 | A4 G4 | F8 |] %14
V:2
 C8 | B,4 G4 | E8 || F8 | F4 A4 | F4 D4 | E8 || A8 | F4 D4 | ^C8 || D8 | D4 F4 | F4 E4 | F8 |] %14
V:3
 C8 | B,4 G,4 | E,8 || C8 | C4 D4 | A,4 G,4 | G,8 || A,8 | F,4 D,4 | ^C,8 || A,8 | (A,2 D2) D4 | %12
 C4 (C2 B,2) | A,8 |] %14
V:4
 C8 | B,4 G,4 | E,8 || A,8 | F,4 D,4 | F,4 G,4 | C,8 || A,8 | F,4 D,4 | ^C,8 || D,8 | D,4 B,,4 | %12
 C,4 C,4 | F,8 |] %14
V:5
 c8 | B4 G4 | E8 || F8 | A4 f4 | d4 =B4 | c8 || A8 | F4 D4 | ^C8 || D8 | F4 d4 | A4 [EG]4 | F8 |] %14
V:6
 x8 | x8 | x8 || [CF]8 | [CF]4 [FA]4 | [FA]4 [DF]4 | [CE]8 || A8 | x8 | x8 || [A,D]8 | %11
 [A,D]4 [DFB]4 | [CF]4 C2 B,2 | [A,F]8 |] %14
V:7
 C8 | B,4 G,4 | E,8 || A,8 | F,4 D,4 | F,4 G,4 | C,8 || A,8 | F,4 D,4 | ^C,8 || [D,F,]8 | %11
 D,4 B,,4 | C,4 C,4 | F,8 |] %14

